packages/web-icons/svgs/scroll_2.svg

<svg viewBox="0 0 58 49" xmlns="http://www.w3.org/2000/svg" class="ridi_icon"><path d="M50.1.1H20.3c-4.1 0-7.1 5-7.1 11.4v23H.9v2c0 .9 0 1.6.2 2.5.9 5.2 4.3 9.1 7.9 9.1h31.1c4.1 0 7.1-5 7.1-11.4V13.4h10.2v-2C57.2 4.9 54.2.1 50.1.1zm2.8 9.2h-5.7c.5-3.4 2-5.2 2.9-5.2.9 0 2.3 1.8 2.8 5.2zM34.2 43.8H8.8c-1.1 0-3-2-3.6-5.2h27.7v.4c.2 1.7.6 3.3 1.3 4.8zm8.7-32.3v25c0 4.8-2 7.3-3 7.3-.9 0-2.5-2-2.9-5.4 0-.5-.2-1.2-.2-2v-2.1H17.2V11.5c0-4.8 2-7.3 3-7.3h24.3c-1 1.9-1.6 4.4-1.6 7.3z"/></svg>

<?xml version="1.0" encoding="UTF-8"?>
<svg width="58px" height="49px" viewBox="0 0 58 49" version="1.1" xmlns="http://www.w3.org/2000/svg">
  <!-- Generator: Sketch 41.2 (35397) - http://www.bohemiancoding.com/sketch -->
  <title>scroll_2</title>
  <desc>Created with Sketch.</desc>
  <defs></defs>
  <g id="Page-1" stroke="none" stroke-width="1" fill="none" fill-rule="evenodd">
    <g id="scroll_2" fill="#000000">
      <g id="Layer_1">
        <path d="M50.1,0.1 L49.7,0.1 L49.7,0.1 L20.3,0.1 C16.2,0.1 13.2,5.1 13.2,11.5 L13.2,34.5 L0.9,34.5 L0.9,36.5 C0.9,37.4 0.9,38.1 1.1,39 C2,44.2 5.4,48.1 9,48.1 L39.5,48.1 L39.7,48.1 L40.1,48.1 C44.2,48.1 47.2,43.1 47.2,36.7 L47.2,13.4 L57.4,13.4 L57.4,11.4 C57.2,4.9 54.2,0.1 50.1,0.1 Z M52.9,9.3 L47.2,9.3 C47.7,5.9 49.2,4.1 50.1,4.1 C51,4.1 52.4,5.9 52.9,9.3 Z M34.2,43.8 L8.8,43.8 C7.7,43.8 5.8,41.8 5.2,38.6 L32.9,38.6 L32.9,39 C33.1,40.7 33.5,42.3 34.2,43.8 Z M42.9,11.5 L42.9,36.5 C42.9,41.3 40.9,43.8 39.9,43.8 C39,43.8 37.4,41.8 37,38.4 C37,37.9 36.8,37.2 36.8,36.4 L36.8,34.3 L17.2,34.3 L17.2,11.5 C17.2,6.7 19.2,4.2 20.2,4.2 L44.5,4.2 C43.5,6.1 42.9,8.6 42.9,11.5 Z" id="Shape"></path>
      </g>
    </g>
  </g>
</svg>
